resources/svg/file-tick-o.svg

<svg xmlns="http://www.w3.org/2000/svg" viewBox="0 0 15 15" fill="none"><path d="M5 7.5L7 9.5L10.5 5.5M10.5 0.5H2.5C1.94772 0.5 1.5 0.947716 1.5 1.5V13.5C1.5 14.0523 1.94772 14.5 2.5 14.5H12.5C13.0523 14.5 13.5 14.0523 13.5 13.5V3.5L10.5 0.5Z" stroke="black"/></svg>

<svg xmlns="http://www.w3.org/2000/svg" viewBox="0 0 15 15" fill="none"><path d="M5 7.5l2 2 3.5-4m0-5h-8a1 1 0 00-1 1v12a1 1 0 001 1h10a1 1 0 001-1v-10l-3-3z" stroke="currentColor"/></svg>
